X:1
T:Caprice No. 24
T:Lá menor
T:Niccolò Paganini
T:Domínio público
T:Domínio público
T:Domínio público
T:Domínio público
Z:Domínio público
%%score ( 1 2 )
L:1/8
Q:1/4=166
M:2/4
K:C
V:1 treble nm="Violin" snm="Vln."
V:2 treble 
V:1
"^Quasi Presto" (A z/ .A/) (A/c/B/A/) | (e z/ .E/) (E/^G/^F/E/) | (A z/ .A/) (A/c/B/).A/ | %3
 (e2 E) z :| (va z/ .a/) (a/_b/a/g/) | (f z/ .d/) (d/f/e/d/) | (g z/ .g/) (g/a/g/f/) | %7
 (e z/ .c/) (c/e/d/c/) | (f z/ .B/) (B/d/c/B/) | (e z/ .A/) (A/c/B/A/) | (F z/ .^d/) (E/e/=d/).B/ | %11
 (A2 A,) z |:{ac'} (3!>!e'.c'.a (3(.e.c.A) |{e^a} (3!>!b.^g.e (3(.B.^G.E) | %14
{ac'} (3!>!e'.c'.a (3(.e.c.A) | (!>!e2 E) z :|{^c'e'} (3!>!a'.e'.^c' (3(.a.e.^c) | %17
{DF} (3!>!A.d.f (3(.a.d'.f') |{bd'} (3!>!g'.d'.b (3(.g.d.B) |{CE} (3!>!G.c.e (3(.g.c'.e') | %20
{f'c'} (3!>!.b.^g.f (3(.d.B.^G) |{e'c'} (3!>!b.e.c (3(.A.E.C) |{DF} (3!>!B.d.f (3(E.e.^G) | %23
 (A2 A,) z |: (A/^G/A/G/{/_B} !>!A/=B/c/d/) | (e/^d/e/d/{/f} !>!e/=d/c/B/) | %26
 (A/^G/A/G/{/_B} !>!A/=B/c/d/) | (e/^d/e/d/{/f} !>!eE) :| (a/^g/a/g/{/_b} a/=g/f/e/) | %29
 (d/^c/e/c/{/_e} !>!d/=e/f/d/) | (g/^f/g/f/{/_a} g/=f/e/d/) | (c/B/c/B/{/_d} c/=d/e/c/) | %32
 (f/e/f/e/{/g} f/d/c/B/) | (e/^d/e/d/{/f} !>!e/c/B/A/) | (B/^A/B/A/{/c} !>!B/f/e/^G/) | %35
 (A/^G/A/G/{/B} !>!A) z |: ([Cc]3 [A,A]) | (!>![^G,^G][B,B] [Ee]2) | ([Cc]3 [A,A]) | %39
 (!>![B,B]!>![^D^d] !>![Ff]!>![Ee]) :| ([Aa]3 [^C^c]) | (!>![Dd]!>![Ee] !>![Ff]!>![^E^f]) | %42
 ([Gg]3 [B,B]) | !>![=C=c]!>![Dd] !>![^D^d]!>![Ee] | ([Ff]3 [B,B]) | ([Ee]3 [A,A]) | %46
 ([B,B][Ff] [Ee][G,^B]) | ([B,d]2 [A,c]) z |: (a/a'/^g'/=g'/ ^f'/=f'/e'/^d'/ | %49
 f'/e'/^d'/f'/ e'/b/^g/e/) | (a/a'/^g'/=g'/ ^f'/=f'/e'/^d'/ | f'/e'/^d'/f'/ e'.e) :| %52
 (a/a'/^g'/=g'/ ^f'/=f'/e'/(d'/) | ^c'/e'/a/c'/ d'/a/f/d/) | (g/g'/^f'/=f'/ e'/_e'/d'/)(c'/ | %55
 b/d'/g/b/ c'/g/e/c/) | (f/f'/e'/_e'/ d'/^c'/=c'/b/) | (e/e'/^d'/=d'/ ^c'/=c'/b/a/) | %58
 (f/e/_e/d/ ^c/=c/B/^G/ | A/)(a'/e'/c'/ a/e/c/A/) |: !>!uA,(f/F/ e/E/)(!>!A, | %61
 ^G,)(^d'/^d/ e'/e/)(!>!G, | A,)(f/F/ e/E/)(!>!A, | ^G,)(^d'/^d/ e'/e/) z :| %64
 !>!^C(_b'/_b/ a'/a/)(!>!C | D)(e/E/ f/F/)(!>!=C | B,)(_a'/_a/ g'/g/)(!>!B, | %67
 C)(^d/^D/ e/E/)(!>!C | =D)(b/B/ _b/_B/)(D | E)(^g/^G/ a/A/)(!>!F | D)(f'/f/ e'/e/)(!>!E | %71
 A,)(c'/c/ a/A/) z |: [c'e']3 ([bd']/[ac']/ | [^gb]/[fa]/[eg]/[df]/ [ce]/[Bd]/[Ac]/[^GB]/) | %74
 [Ac]3 ([Bd]/[ce]/ | [Bd]/[Ac]/[^GB]/[FA]/ [EG]2) :| [A^c']3 ([Bd']/[^ce']/ | %77
!8va(! [df']/[eg']/[fa']/[g=b']/ [a^c'']/[bd'']/[^c'e'']/[d'f'']/)!8va)! | [G,B]3 ([A,=c]/[B,d]/ | %79
 [Ce]/[Df]/[Eg]/[Fa]/ [Gb]/[Ac']/[Bd']/[ce']/) | ([df']3 [ce']/[Bc']/) | ([ce']3 [Bd']/[Ac']/) | %82
 ([Df][Ee]/[Fd]/ [Ec]/[Ac]/[EB]/[^GB]/) | A2 A, z |: (3((e'/f'/e'/) !>!c'2) (3(a/b/a/) | %85
 (3(b/c'/b/)(3(^g/a/g/) (3(e/f/e/)E | (3((e'/f'/e'/) !>!c'2) (3(A,/B,/A,/) | %87
 (3(B,/C/B,/)(3(E/F/E/) (3(^G/A/G/)E :| (3((e'/f'/e'/) !>!^c'2) (3(a/_b/a/) | %89
 (3(d'/e'/d'/)(3(A/_B/A/) (3(F/G/F/)(3(D/E/D/) | (3((d'/e'/d'/) !>!=b2) (3(g/a/g/) | %91
 (3(c'/d'/c'/)(3(B/c/B/) (3(E/G/E/)(3(C/E/C/) | (3((d'/e'/d'/) !>!f'2) (3(D/E/D/) | %93
 (3((c'/d'/c'/) !>!e'2) (3(C/D/C/) | (3(ud'/e'/d'/)(3(B,/C/B,/) (3(b/c'/b/)(3(^G,/A,/G,/) | %95
 (3(A,/B,/A,/)(3(a/b/a/) A,2 |: v[Ace]u[cee] v[Bde]u[Ace] | [^GBe][EBb] [^FAb][GBe] | %98
 [Ace][cee] [Bde][Ace] | [^GBe][=F^da] [Ee^g][EBe] :| [A^ce][Bde] [cee][Ace] | %101
 [Dfd'][Dge'] [Daf'][Dfd'] | [G,DB][G,Ec] [G,Fd][G,DB] | [CGe][DGf] [EGg][CGe] | %104
 [DBf][DBd] [DBe][DBf] | [Cce][B,Bd] [A,Ac][A,G^c] | [DFd][^D=ca] [Eca][EB^g] | [Aca]2 A, z |: %108
 uc'/!snap!!plus!a/!snap!!plus!e/vc/ !snap!!plus!A/ue/!snap!!plus!c/!snap!!plus!A/ | %109
 b/!snap!!plus!^g/!snap!!plus!e/d'/ !snap!!plus!b/!snap!!plus!e/g/!snap!!plus!e/ | %110
 c'/!snap!!plus!a/!snap!!plus!e/c/ !snap!!plus!A/e/!snap!!plus!c/!snap!!plus!A/ | %111
 b/!snap!!plus!^g/!snap!!plus!e/e/ !snap!!plus!B/^G/!snap!!plus!E :| %112
 ue'/!plus!^c'/!plus!a/!plus!e/ v^c/!plus!A/v=G/!plus!E/ | %113
 F/!plus!D/d'/!plus!a/ f/!plus!d/F/!plus!D/ | d'/!plus!b/g/!plus!f/ d/!plus!B/F/!plus!D/ | %115
 E/!plus!C/c'/!plus!g/ e/!plus!c/E/!plus!C/ | %116
 b/!plus!a/!plus!^g/!plus!f/ !plus!e/d/!plus!c/!plus!B/ | %117
 !plus!A/=G/!plus!F/!plus!E/ !plus!D/C/!plus!B,/!plus!A,/ | %118
 F/!plus!D/a/!plus!f/ ^G/!plus!E/b/!plus!^g/ | a/!plus!e/c/!plus!A/ !plus!A, z |: %120
!8va(! a'3 (e'/c''/ | b'/a'/^g'/^f'/ e'/f'/g'/e'/) | (a'2- a'/b'/c''/d''/) | (^d''>e'' e'2) :| %124
 a'2- a'/(e''/^c''/a'/ | g'/e'/^c'/a/ g/f/e/d/) | g'2- g'/(d''/b'/g'/!8va)! | %127
 f'/d'/b/g/ f/e/d/c/) | f'2- f'/(d'/b/a/ | ^g/e/d/B/ c/e/a/=g/) | (f/d'/b/a/ ^g/b'/^g'/e'/) | %131
{/^g'} (a'2 a) z |:!f! [CE]/[Ae]/[CE]/[Ae]/ [B,^G]/[Be]/([A,E]/[ce]/) | %133
 (^G,/4B,/4E/4^G/4B/4e/4g/4b/4 e'/)(.^g'/.b'/.d''/) | %134
 ([EG]/[Ae]/)([CE]/[Ae]/) ([B,^G]/[eb]/)([A,E]/[ca]/) | [^G,E]/e'/b/^g/ e/B/^G/E/ :| %136
 [^CA]/[e^c']/([CA]/[ec']/) ([DA]/[fd']/)([E^c]/[ae']/) | %137
 (7:4:7(F/D/F/A/d/f/a/ d'/)(.f'/.a'/.d''/) | %138
 ([B,G]/[db]/)([B,G]/[db]/) ([CG]/[ec']/)([DB]/[gd']/) | %139
 (7:4:7(E/C/E/G/c/e/g/ c'/)(.e'/.g'/.c''/) | %140
 ([DB]/[fd']/)([Dc]/[fd']/) ([CA]/[ec']/)([B,^G]/[eb]/) | %141
 ([A,E]/[ca]/)([B,^G]/[eb]/) ([CA]/[ec']/)([^Dc]/[a^f']/) | %142
 (6:4:6E/A/c/e/a/c'/ (6:4:6E/^G/B/e/^g/b/ ||!p! (6:4:6(A,/C/E/A/c/e/) (6:4:6(a/e/c/A/E/C/) | %144
 (6:4:6(A,/^C/E/A/^c/e/) (6:4:6(a/e/c/A/E/C/) | (6:4:6(D/F/A/d/f/a/ d'/)(.f'/.a'/.d''/) | %146
!f! ([^G,F]/[da]/)([B,^G]/[fd']/) ([DB]/[^gf']/)([G,F]/[db]/) | %147
!p! (6:4:6(A,/C/E/A/c/e/) (6:4:6(a/e/c/A/E/C/) | (6:4:6(A,/^C/E/A/^c/e/) (6:4:6(a/e/c/A/E/C/) | %149
 (6:4:6(D/F/A/d/f/a/ d'/)(.f'/.a'/.d''/) | %150
!f! ([^G,F]/[da]/)([B,^G]/[fd']/) ([DB]/[^gf']/)([G,F]/[db]/) | %151
[K:A] (6:4:6(A,/C/E/A/c/e/ (6:4:6a/e/c/A/E/C/) | (7:4:7(A,/C/E/A/c/e/a/ (7:4:7c'/a/e/c/A/E/C/) | %153
!p! (A,/4C/4E/4A/4c/4e/4a/4c'/4 e'/4c'/4a/4e/4c/4A/4E/4C/4) | %154
 (9:8:9(A,/4C/4E/4A/4c/4e/4a/4c'/4e'/4 (9:8:9a'/4e'/4c'/4a/4e/4c/4A/4E/4C/4) | (TA,4 | TA,4) | %157
!ff!{G,A,} [A,Eca] z z2 |] %158
V:2
 x4 | x4 | x4 | x4 :| x4 | x4 | x4 | x4 | x4 | x4 | x4 | x4 |: x4 | x4 | x4 | x4 :| x4 | x4 | x4 | %19
 x4 | x4 | x4 | x4 | x4 |: x4 | x4 | x4 | x4 :| x4 | x4 | x4 | x4 | x4 | x4 | x4 | x4 |: x4 | x4 | %38
 x4 | x4 :| x4 | x4 | x4 | x4 | x4 | x4 | x4 | x4 |: x4 | x4 | x4 | x4 :| x4 | x4 | x4 | x4 | x4 | %57
 x4 | x4 | x4 |: x4 | x4 | x4 | x4 :| x4 | x4 | x4 | x4 | x4 | x4 | x4 | x4 |: x4 | x4 | x4 | x4 :| %76
 x4 |!8va(! x4!8va)! | x4 | x4 | x4 | x4 | x4 | A2 x2 |: x4 | x4 | x4 | x4 :| x4 | x4 | x4 | x4 | %92
 x4 | x4 | x4 | x4 |: x4 | x4 | x4 | x4 :| x4 | x4 | x4 | x4 | x4 | x4 | x4 | x4 |: x4 | x4 | x4 | %111
 x4 :| x4 | x4 | x4 | x4 | x4 | x4 | x4 | x4 |:!8va(! x4 | x4 | x4 | x4 :| x4 | x4 | x4!8va)! | %127
 x4 | x4 | x4 | x4 | x4 |: x4 | x4 | x4 | x4 :| x4 | x4 | x4 | x4 | x4 | x4 | x4 || x4 | x4 | x4 | %146
 x4 | x4 | x4 | x4 | x4 |[K:A] x4 | x161/40 | x4 | x159/40 | x4 | x4 | x4 |] %158

